X:1
T:Ithaca, 87.87 D
T:Ithaca, 87.87 D
T:Philip Paul Bliss, 1871
T:Public Domain Courtesy of the Cyber Hymnal™
C:Philip Paul Bliss, 1871
Z:Public Domain
Z:Courtesy of the Cyber Hymnal™
%%score ( 1 2 ) ( 3 4 )
L:1/8
Q:1/4=100
M:3/4
K:Bb
V:1 treble 
V:2 treble 
V:3 bass 
V:4 bass 
V:1
 [DF]>[EG] | [DF]3 [Fd] [Ec][DB] | [FA] [EG]3 [EG]>[EG] | [=Ec]3 [EB] [EA][EB] | c4 [DF]>[EG] | %5
 [DF]3 [DB] [Ec][Fd] | [Ge] [EG]3 [GB]>[Gc] | [Fd]3 [DB] [Ec]>[CA] | [DB]4 [DB]>[DB] | %9
 [Ge]3 [Ge] [Ge]>[Ge] | [Ge] [Fd]3 [Fd]>[Fd] | [=Ed]3 [Ec] [EG]>[Ec] | c4 | [DF]>[EG] | %14
 [DF]3 [DB] [Ec][Fd] | [Ge] [EG]3 [GB]>[Gc] | [Fd]3 [DB] [Ec]>[CA] | [DB]4 |] %18
V:2
 x2 | x6 | x6 | x6 | (F2 E2) x2 | x6 | x6 | x6 | x6 | x6 | x6 | x6 | (F2 E2) | x2 | x6 | x6 | x6 | %17
 x4 |] %18
V:3
 [B,,B,]>[B,,B,] | [B,,B,]3 [B,,B,] [B,,B,][B,,B,] | [E,B,] [E,B,]3 [E,B,]>[E,G,] | %3
 [C,G,]3 [C,C] [C,C][C,B,] | [F,A,]4 [B,,B,]>[B,,B,] | [B,,B,]3 [B,,B,] [B,,B,][B,,B,] | %6
 [E,B,] [E,B,]3 [E,B,]>[E,B,] | [F,B,]3 F, [F,A,]>[F,C] | [B,,B,]4 B,>B, | %9
 [E,B,]3 [E,B,] [E,B,]>[E,B,] | [B,,B,] [B,,B,]3 B,>B, | [G,C]3 [G,C] [G,C]>[G,B,] | [F,A,]4 | %13
 [B,,B,]>[B,,B,] | [B,,B,]3 [B,,B,] [B,,B,][B,,B,] | [E,B,] [E,B,]3 [E,B,]>[E,B,] | %16
 [F,B,]3 F, [F,A,]>[F,C] | [B,,B,]4 |] %18
V:4
 x2 | x6 | x6 | x6 | x6 | x6 | x6 | x6 | x4 B,3/2 x/ | x6 | x4 B,>B, | x6 | x4 | x2 | x6 | x6 | %16
 x3 F, x2 | x4 |] %18

